X: 40001
T: Three Little Steps
R: jig
M: 6/8
K: Dmajor
dcA ~F2D|GFD ~D2A|DED ABB|AFE EFA|
dcA ~F2A|GAD ~D2A|DED B2F|AFE D2z|
dcA ~F2D|GFD ~D2A|DED ABB|AFE EFA|
dcA zBF|AFE ~D2A|DED B2F|AFE D2z|
M:9/8
|:FAd dAG GAA|EAc dea ~g2f|Bfg- gfa g2f|gfe def eef|
FAd dAG GAA|EAc dea ~g2f|Bfg- gfa g2f|gfe def e2d:|

